svgs/duotone/capsules.svg

<svg xmlns="http://www.w3.org/2000/svg" viewBox="0 0 576 512"><!-- Font Awesome Pro 6.0.0-alpha2 by @fontawesome - https://fontawesome.com License - https://fontawesome.com/license (Commercial License) --><defs><style>.fa-secondary{opacity:.4}</style></defs><path d="M111.872 32C51.141 32 0 83.125 0 143.835V255.67H223.743V143.835C223.743 83.125 172.602 32 111.872 32ZM425.112 111.882C389.952 60.758 316.437 47.976 265.295 83.125L265.295 83.125C262.099 86.32 258.903 89.515 255.706 92.71V271.646L303.651 338.747L492.235 207.741L425.112 111.882Z" class="fa-secondary"/><path d="M0 367.505C0 428.215 51.141 479.34 111.872 479.34S223.743 428.215 223.743 367.505V255.67H0V367.505ZM556.161 300.404L492.235 207.741L303.651 338.747L367.578 431.41C402.738 482.535 476.253 495.316 527.394 460.168S591.321 351.528 556.161 300.404Z" class="fa-primary"/></svg>

<svg xmlns="http://www.w3.org/2000/svg" viewBox="0 0 576 512"><!--! Font Awesome Pro 6.3.0 by @fontawesome - https://fontawesome.com License - https://fontawesome.com/license (Commercial License) Copyright 2023 Fonticons, Inc. --><defs><style>.fa-secondary{opacity:.4}</style></defs><path class="fa-primary" d="M0 367.5c0 60.71 51.14 111.8 111.9 111.8s111.9-51.12 111.9-111.8V255.7H0V367.5zM556.2 300.4l-63.93-92.66l-188.6 131l63.93 92.66c35.16 51.12 108.7 63.91 159.8 28.76S591.3 351.5 556.2 300.4z"/><path class="fa-secondary" d="M111.1 32C51.24 32-.0021 83.25-.0021 143.1L0 255.7h223.7L223.9 143.9C223.9 83.23 172.7 32 111.1 32zM425.1 111.9c-35.16-51.12-108.7-63.91-159.8-28.76L255.7 92.71v178.9l47.94 67.1l188.6-131L425.1 111.9z"/></svg>
